Newaita/actions/22/tab-duplicate.svg

<svg height="22" viewBox="0 0 22 22" width="22" xmlns="http://www.w3.org/2000/svg"><g fill="#424242"><path d="m1.820312 15.636719h4.09375c.25 0 .453126.203125.453126.453125s-.203126.453125-.453126.453125h-4.09375c-.253906 0-.457031-.203125-.457031-.453125s.203125-.453125.457031-.453125zm0 0"/><path d="m9.097656 11.996094c-.503906 0-.910156.40625-.910156.910156v5.457031h1.816406v-4.09375c0-.25.203125-.453125.457032-.453125h7.277343c.25 0 .453125.203125.453125.453125v4.09375h1.820313v-5.457031c0-.503906-.40625-.910156-.910157-.910156zm0 0"/><path d="m7.277344 19.273438h12.734375c.25 0 .453125.1875.453125.417968v.074219c0 .230469-.203125.417969-.453125.417969h-12.734375c-.25 0-.457032-.1875-.457032-.417969v-.074219c0-.230468.207032-.417968.457032-.417968zm0 0"/><path d="m3.636719 3.808594c-1.007813 0-1.816407.8125-1.816407 1.820312v9.097656h1.816407v-8.1875c0-.503906.40625-.910156.910156-.910156h12.734375c.503906 0 .910156.40625.910156.910156v3.636719h1.820313v-4.546875c0-1.007812-.8125-1.820312-1.820313-1.820312zm0 0"/></g></svg>

<?xml version="1.0" encoding="UTF-8"?>
<svg xmlns="http://www.w3.org/2000/svg" xmlns:xlink="http://www.w3.org/1999/xlink" width="22px" height="22px" viewBox="0 0 22 22" version="1.1">
<g id="surface1">
<path style=" stroke:none;fill-rule:nonzero;fill:rgb(25.882354%,25.882354%,25.882354%);fill-opacity:1;" d="M 1.820312 15.636719 L 5.914062 15.636719 C 6.164062 15.636719 6.367188 15.839844 6.367188 16.089844 C 6.367188 16.339844 6.164062 16.542969 5.914062 16.542969 L 1.820312 16.542969 C 1.566406 16.542969 1.363281 16.339844 1.363281 16.089844 C 1.363281 15.839844 1.566406 15.636719 1.820312 15.636719 Z M 1.820312 15.636719 "/>
<path style=" stroke:none;fill-rule:nonzero;fill:rgb(25.882354%,25.882354%,25.882354%);fill-opacity:1;" d="M 9.097656 11.996094 C 8.59375 11.996094 8.1875 12.402344 8.1875 12.90625 L 8.1875 18.363281 L 10.003906 18.363281 L 10.003906 14.269531 C 10.003906 14.019531 10.207031 13.816406 10.460938 13.816406 L 17.738281 13.816406 C 17.988281 13.816406 18.191406 14.019531 18.191406 14.269531 L 18.191406 18.363281 L 20.011719 18.363281 L 20.011719 12.90625 C 20.011719 12.402344 19.605469 11.996094 19.101562 11.996094 Z M 9.097656 11.996094 "/>
<path style=" stroke:none;fill-rule:nonzero;fill:rgb(25.882354%,25.882354%,25.882354%);fill-opacity:1;" d="M 7.277344 19.273438 L 20.011719 19.273438 C 20.261719 19.273438 20.464844 19.460938 20.464844 19.691406 L 20.464844 19.765625 C 20.464844 19.996094 20.261719 20.183594 20.011719 20.183594 L 7.277344 20.183594 C 7.027344 20.183594 6.820312 19.996094 6.820312 19.765625 L 6.820312 19.691406 C 6.820312 19.460938 7.027344 19.273438 7.277344 19.273438 Z M 7.277344 19.273438 "/>
<path style=" stroke:none;fill-rule:nonzero;fill:rgb(25.882354%,25.882354%,25.882354%);fill-opacity:1;" d="M 3.636719 3.808594 C 2.628906 3.808594 1.820312 4.621094 1.820312 5.628906 L 1.820312 14.726562 L 3.636719 14.726562 L 3.636719 6.539062 C 3.636719 6.035156 4.042969 5.628906 4.546875 5.628906 L 17.28125 5.628906 C 17.785156 5.628906 18.191406 6.035156 18.191406 6.539062 L 18.191406 10.175781 L 20.011719 10.175781 L 20.011719 5.628906 C 20.011719 4.621094 19.199219 3.808594 18.191406 3.808594 Z M 3.636719 3.808594 "/>
</g>
</svg>
